packages/astro-components-stencil/src/icons/perm-media.svg

<svg xmlns="http://www.w3.org/2000/svg" viewBox="0 0 24 24"><g xmlns="http://www.w3.org/2000/svg" id="perm-media" fill-rule="nonzero">
            <path d="M1 6c-.55 0-1 .45-1 1v4h.01L0 20c0 1.1.9 2 2 2h17c.55 0 1-.45 1-1s-.45-1-1-1H3c-.55 0-1-.45-1-1V7c0-.55-.45-1-1-1zm21-2h-8l-1.41-1.41c-.38-.38-.89-.59-1.42-.59H6c-1.1 0-1.99.9-1.99 2L4 16c0 1.1.9 2 2 2h16c1.1 0 2-.9 2-2V6c0-1.1-.9-2-2-2zM7.6 14.2l3.51-4.68c.2-.26.59-.27.8-.01l3.1 3.99 2.1-2.53a.5.5 0 01.78.01l2.49 3.2a.5.5 0 01-.39.81H8a.491.491 0 01-.4-.79z"/>
        </g></svg>

<svg width="24" height="24" viewBox="0 0 24 24" fill="none" xmlns="http://www.w3.org/2000/svg">
<path fill-rule="evenodd" clip-rule="evenodd" d="M22 4H14L12.59 2.59C12.21 2.21 11.7 2 11.17 2H6C4.9 2 4.01 2.9 4.01 4L4 16C4 17.1 4.9 18 6 18H22C23.1 18 24 17.1 24 16V6C24 4.9 23.1 4 22 4ZM1 6C0.45 6 0 6.45 0 7V11H0.01L0 20C0 21.1 0.9 22 2 22H19C19.55 22 20 21.55 20 21C20 20.45 19.55 20 19 20H3C2.45 20 2 19.55 2 19V7C2 6.45 1.55 6 1 6ZM11.11 9.52L7.6 14.2C7.35 14.53 7.59 15 8 14.99H19.99C20.4 14.99 20.64 14.51 20.38 14.18L17.89 10.98C17.69 10.73 17.31 10.72 17.11 10.97L15.01 13.5L11.91 9.51C11.7 9.25 11.31 9.26 11.11 9.52Z" fill="black"/>
</svg>
